public/style/workarea/images/icons/exe-palette-icon-green.svg

<svg fill="none" height="20" viewBox="0 0 20 20" width="20" xmlns="http://www.w3.org/2000/svg"><g stroke="#0ba0a0"><path d="m2.44971 14.4697c2.48528 4.3046 7.89579 5.8603 12.20039 3.375 1.562-1.1558 1.4375-2.3125 0-2.9062-.8616-.3559-1.5625-.7813-1.5625-1.6563 0-1.9095 2.3929-1.946 3.75-2.5937 1.7977-.85799 2.6167-2.76594 1.2006-5.2188-.4262-.73807-.9411-1.39296-1.5234-1.95896-2.8142-2.735014-7.20431-3.394417-10.77087-1.33526-4.30463 2.48528-5.7795056 7.98962-3.29422 12.29422z" stroke-width="1.7"/><path d="m4.82831 10.2259c.23257-.24781.5543-.39315.89393-.4041.33987-.01079.67075.11437.91872.3471.24788.2327.39332.5541.40412.8939.01078.3398-.1136.6702-.34625.9182-.23271.248-.55489.3938-.89476.4046-.33979.0108-.66997-.1149-.91788-.3475-.24786-.2327-.39333-.5542-.40412-.894-.01076-.3398.11359-.6702.34624-.9182zm5.61629-5.63857c.2327-.24798.5549-.39384.8947-.40463.3399-.01075.67.11491.9179.34759.2479.23269.3933.55416.4041.89393.0108.33979-.1136.67028-.3462.9182-.2327.24793-.5546.39248-.8945.40329-.3398.01078-.6702-.11354-.9182-.34624-.2478-.23268-.3933-.55418-.4041-.89394-.0108-.33977.1137-.67025.3463-.9182zm-4.37344 1.23109c.23264-.2479.55418-.39325.89393-.40412.33981-.01079.67025.11362.9182.34624.24789.23262.39323.55421.40412.89393.01079.33978-.11366.67025-.34624.9182-.23271.24798-.5549.39384-.89476.40464-.33964.01067-.66952-.11427-.91737-.34676-.24798-.23271-.39384-.5549-.40464-.89476-.01065-.33964.11424-.66953.34676-.91737z" fill="#0ba0a0"/></g></svg>

<svg width="20" height="20" viewBox="0 0 20 20" fill="none" xmlns="http://www.w3.org/2000/svg">
<path d="M2.44971 14.4697C4.93499 18.7743 10.3455 20.33 14.6501 17.8447C16.2121 16.6889 16.0876 15.5322 14.6501 14.9385C13.7885 14.5826 13.0876 14.1572 13.0876 13.2822C13.0876 11.3727 15.4805 11.3362 16.8376 10.6885C18.6353 9.83051 19.4543 7.92256 18.0382 5.4697C17.612 4.73163 17.0971 4.07674 16.5148 3.51074C13.7006 0.775726 9.31049 0.116323 5.74393 2.17548C1.4393 4.66076 -0.0355756 10.1651 2.44971 14.4697Z" stroke="#0BA0A0" stroke-width="1.7"/>
<path d="M4.82831 10.2259C5.06088 9.97809 5.38261 9.83275 5.72224 9.8218C6.06211 9.81101 6.39299 9.93617 6.64096 10.1689C6.88884 10.4016 7.03428 10.723 7.04508 11.0628C7.05586 11.4026 6.93148 11.733 6.69883 11.981C6.46612 12.229 6.14394 12.3748 5.80407 12.3856C5.46428 12.3964 5.1341 12.2707 4.88619 12.0381C4.63833 11.8054 4.49286 11.4839 4.48207 11.1441C4.47131 10.8043 4.59566 10.4739 4.82831 10.2259ZM10.4446 4.58733C10.6773 4.33935 10.9995 4.19349 11.3393 4.1827C11.6792 4.17195 12.0093 4.29761 12.2572 4.53029C12.5051 4.76298 12.6505 5.08445 12.6613 5.42422C12.6721 5.76401 12.5477 6.0945 12.3151 6.34242C12.0824 6.59035 11.7605 6.7349 11.4206 6.74571C11.0808 6.75649 10.7504 6.63217 10.5024 6.39947C10.2546 6.16679 10.1091 5.84529 10.0983 5.50553C10.0875 5.16576 10.212 4.83528 10.4446 4.58733ZM6.07116 5.81842C6.3038 5.57052 6.62534 5.42517 6.96509 5.4143C7.3049 5.40351 7.63534 5.52792 7.88329 5.76054C8.13118 5.99316 8.27652 6.31475 8.28741 6.65447C8.2982 6.99425 8.17375 7.32472 7.94117 7.57267C7.70846 7.82065 7.38627 7.96651 7.04641 7.97731C6.70677 7.98798 6.37689 7.86304 6.12904 7.63055C5.88106 7.39784 5.7352 7.07565 5.7244 6.73579C5.71375 6.39615 5.83864 6.06626 6.07116 5.81842Z" fill="#0BA0A0" stroke="#0BA0A0"/>
</svg>
